X:8082
T:Whitefryer's Hornpipe
O:england
R:hornpipe
C:trad
S:John Walsh c1730
D:John Kirkpatrick/Sue Harris "Shreds and Patches"
M:4/4
L:1/8
Q:1/4=180
K:Dmix
| c>BA>G | F>GA>F | G>AB>G | A2D/2E/2D/2z/2 | F2D/2E/2D/2z/2 | F2Az | A3B |
c>BA>G | F>GA>F | G>AB>G | A>Bc>A | B2Gz | G2z B |
c>BA>G | F>GA>F | G>AB>G | A2D/2E/2D/2z/2 | F2D/2E/2D/2z/2 | F2Az | A3B |
c>BA>G | F>GA>F | G>AB>G | A>Bc>d | B2Gz | G2z B |
| c>Bc>d | e4 | g2(3efg | a>gf>e | d>ef>d | e>fg>e | a zA2 | A3 B |
c>Bc>d | e4 | g2(3efg | a>gf>e | d>ef>d | A>Bc>A | B2Gz | G3 B |
c>Bc>d | e4 | g2(3efg | a>gf>e | d>ef>d | e>fg>e | a zA2 | A3 B |
c>Bc>d | e4 | g2(3efg | a>gf>e | d>ef>d | A>Bc>A | B2Gz | G2 A>B |]


